public/favicon.svg

<svg width="128" height="128" viewBox="0 0 128 128" fill="none" xmlns="http://www.w3.org/2000/svg">
<rect width="128" height="128" rx="64" fill="#1C262F"/>
<path d="M58.9814 51.6328H56.418C55.9395 49.8327 54.9368 47.9072 53.4102 45.8564C51.9062 43.8057 50.4593 42.6777 49.0693 42.4727C48.363 42.3815 47.5199 42.3132 46.54 42.2676C45.583 42.222 44.4893 42.1992 43.2588 42.1992H35.124V61.6816H40.6953C42.3815 61.6816 43.6917 61.5107 44.626 61.1689C45.5602 60.8044 46.3577 60.2575 47.0186 59.5283C47.4743 59.027 47.8844 58.2523 48.249 57.2041C48.6364 56.1331 48.887 54.9938 49.001 53.7861H51.5986V72.8242H49.001C48.9326 71.8216 48.6934 70.6823 48.2832 69.4062C47.8958 68.1302 47.4743 67.2074 47.0186 66.6377C46.335 65.7946 45.4691 65.2249 44.4209 64.9287C43.3955 64.6097 42.1536 64.4502 40.6953 64.4502H35.124V81.1641C35.124 81.916 35.2721 82.5882 35.5684 83.1807C35.8646 83.7731 36.3887 84.2516 37.1406 84.6162C37.4824 84.7757 38.223 84.9694 39.3623 85.1973C40.5016 85.4251 41.3675 85.5505 41.96 85.5732V88H20.9395V85.5732C21.623 85.5277 22.5345 85.4593 23.6738 85.3682C24.8132 85.2542 25.5537 85.1175 25.8955 84.958C26.5791 84.6618 27.069 84.2288 27.3652 83.6592C27.6842 83.0667 27.8438 82.3604 27.8438 81.54V46.54C27.8438 45.7881 27.7184 45.1273 27.4678 44.5576C27.2171 43.9652 26.693 43.4867 25.8955 43.1221C25.2803 42.8258 24.4486 42.5638 23.4004 42.3359C22.375 42.1081 21.5547 41.9714 20.9395 41.9258V39.499H58.9814V51.6328ZM98.6299 48.9668C98.6299 46.7109 97.9121 45.0589 96.4766 44.0107C95.0638 42.9626 93.1953 42.4385 90.8711 42.4385C90.4154 42.4385 89.8799 42.4613 89.2646 42.5068C88.6494 42.5296 88.1709 42.5524 87.8291 42.5752L83.5908 60.8271H85.8809C89.8001 60.8271 92.8991 59.7448 95.1777 57.5801C97.4792 55.3926 98.6299 52.5215 98.6299 48.9668ZM95.9639 71.9697C95.9639 69.3493 95.1208 67.3441 93.4346 65.9541C91.7484 64.5413 89.2533 63.835 85.9492 63.835C85.4935 63.835 84.9238 63.8577 84.2402 63.9033C83.5794 63.9261 83.1237 63.9489 82.873 63.9717L78.7031 82.0186C78.7259 82.8617 79.3525 83.5794 80.583 84.1719C81.8135 84.7643 83.1807 85.0605 84.6846 85.0605C87.7152 85.0605 90.347 83.8415 92.5801 81.4033C94.8359 78.9652 95.9639 75.8206 95.9639 71.9697ZM95.041 39.499C100.897 39.499 105.192 40.2282 107.927 41.6865C110.684 43.1221 112.062 45.3324 112.062 48.3174C112.062 50.2998 111.618 52.043 110.729 53.5469C109.864 55.0508 108.713 56.3154 107.277 57.3408C105.842 58.389 104.178 59.2663 102.287 59.9727C100.419 60.679 98.4818 61.2373 96.4766 61.6475L96.3398 62.2969C97.9121 62.4564 99.5072 62.7982 101.125 63.3223C102.766 63.8236 104.167 64.473 105.329 65.2705C106.582 66.1136 107.574 67.139 108.303 68.3467C109.032 69.5544 109.396 71.0241 109.396 72.7559C109.396 77.7461 107.3 81.54 103.107 84.1377C98.9375 86.7126 92.7738 88 84.6162 88H58.0928L58.6738 85.5049C59.2435 85.4821 60.0866 85.4023 61.2031 85.2656C62.3424 85.1061 63.1855 84.9352 63.7324 84.7529C64.6211 84.4567 65.2933 84.0124 65.749 83.4199C66.2275 82.8275 66.5579 82.1325 66.7402 81.335L74.5674 47.4287C74.6813 46.9502 74.7611 46.5514 74.8066 46.2324C74.8522 45.9134 74.875 45.6742 74.875 45.5146C74.875 44.5576 74.3851 43.8171 73.4053 43.293C72.4482 42.7461 70.876 42.3132 68.6885 41.9941L69.2695 39.499H95.041Z" fill="#E6E7EB"/>
</svg>

<svg xmlns="http://www.w3.org/2000/svg" width="128" height="128" fill="none"><rect width="128" height="128" fill="#1C262F" rx="64"/><path fill="#E6E7EB" d="M58.981 51.633h-2.563c-.478-1.8-1.481-3.726-3.008-5.777-1.504-2.05-2.95-3.178-4.34-3.383-.707-.091-1.55-.16-2.53-.205a69.738 69.738 0 0 0-3.281-.069h-8.135v19.483h5.571c1.687 0 2.997-.171 3.931-.513a6.246 6.246 0 0 0 2.393-1.64c.455-.502.865-1.277 1.23-2.325.387-1.07.638-2.21.752-3.418h2.598v19.038H49c-.068-1.002-.308-2.142-.718-3.418-.387-1.276-.809-2.199-1.264-2.768a5.027 5.027 0 0 0-2.598-1.71c-1.026-.318-2.267-.478-3.726-.478h-5.571v16.714c0 .752.148 1.424.444 2.017.297.592.82 1.07 1.573 1.435.341.16 1.082.353 2.221.581 1.14.228 2.005.353 2.598.376V88H20.94v-2.427c.683-.045 1.595-.114 2.734-.205 1.14-.114 1.88-.25 2.221-.41.684-.296 1.174-.73 1.47-1.299.32-.592.479-1.299.479-2.119v-35c0-.752-.126-1.413-.376-1.982-.25-.593-.775-1.071-1.573-1.436-.615-.296-1.446-.558-2.495-.786-1.025-.228-1.845-.365-2.46-.41v-2.427H58.98v12.134Zm39.649-2.666c0-2.256-.718-3.908-2.153-4.956-1.413-1.048-3.282-1.573-5.606-1.573-.456 0-.991.023-1.606.069-.616.023-1.094.045-1.436.068l-4.238 18.252h2.29c3.92 0 7.018-1.082 9.297-3.247 2.301-2.187 3.452-5.058 3.452-8.613ZM95.964 71.97c0-2.62-.843-4.626-2.53-6.016-1.686-1.413-4.18-2.119-7.485-2.119-.456 0-1.025.023-1.709.068-.66.023-1.116.046-1.367.069l-4.17 18.047c.023.843.65 1.56 1.88 2.153 1.23.592 2.598.889 4.102.889 3.03 0 5.662-1.22 7.895-3.658 2.256-2.438 3.384-5.582 3.384-9.433Zm-.923-32.471c5.856 0 10.151.73 12.886 2.188 2.757 1.435 4.135 3.645 4.135 6.63 0 1.983-.444 3.726-1.333 5.23a11.921 11.921 0 0 1-3.452 3.794c-1.435 1.048-3.099 1.925-4.99 2.632a37.851 37.851 0 0 1-5.81 1.675l-.137.649c1.572.16 3.167.501 4.785 1.025 1.641.502 3.042 1.151 4.204 1.948 1.253.844 2.245 1.869 2.974 3.077.729 1.207 1.093 2.677 1.093 4.409 0 4.99-2.096 8.784-6.289 11.382C98.937 86.713 92.774 88 84.617 88H58.092l.58-2.495c.57-.023 1.414-.103 2.53-.24 1.14-.159 1.982-.33 2.53-.512.888-.296 1.56-.74 2.016-1.333a5.06 5.06 0 0 0 .991-2.085l7.827-33.906c.114-.479.194-.878.24-1.197.045-.319.068-.558.068-.717 0-.957-.49-1.698-1.47-2.222-.957-.547-2.529-.98-4.716-1.299l.58-2.495h25.772Z"/></svg>
